branding/aero-logo.svg

<?xml version="1.0" encoding="UTF-8"?>
<svg class="logo" version="1.1" viewBox="0 0 517.01 56.69" xmlns="http://www.w3.org/2000/svg">
 <defs>
  <style>.cls-1{fill:#fff;}.cls-2{fill:#ff6464;}</style>
 </defs>
 <g data-name="Layer 2">
  <g data-name="Layer 4">
   <path class="cls-1" d="M233.14,55.39V31.67h-8V28.35h20v3.32h-7.95V55.39Z"/>
   <path class="cls-1" d="m254.23 55.85a9.86 9.86 0 0 1-5-1.26 8.87 8.87 0 0 1-3.41-3.49 10.55 10.55 0 0 1-1.24-5.22 11.1 11.1 0 0 1 1.22-5.29 8.81 8.81 0 0 1 3.4-3.55 9.84 9.84 0 0 1 5.07-1.28 9.32 9.32 0 0 1 4.9 1.24 8.87 8.87 0 0 1 3.24 3.34 9.22 9.22 0 0 1 1.16 4.6v0.83s0 0.62-0.05 1h-14.93a5.92 5.92 0 0 0 1.83 4.23 5.57 5.57 0 0 0 3.81 1.45 5.08 5.08 0 0 0 2.91-0.79 4.78 4.78 0 0 0 1.76-2.15h4.1a8.59 8.59 0 0 1-3.08 4.49 8.9 8.9 0 0 1-5.69 1.85zm0-16.72a5.77 5.77 0 0 0-3.63 1.21 5.35 5.35 0 0 0-1.94 3.66h10.82a4.92 4.92 0 0 0-1.58-3.55 5.29 5.29 0 0 0-3.67-1.32z"/>
   <path class="cls-1" d="M273.85,55.85a8.75,8.75,0,0,1-4-.81,5.51,5.51,0,0,1-2.36-2.15,5.63,5.63,0,0,1-.77-2.91,5.2,5.2,0,0,1,2.16-4.4A10.08,10.08,0,0,1,275.05,44h5v-.34a4.3,4.3,0,0,0-1.22-3.36,4.44,4.44,0,0,0-3.14-1.12,5.19,5.19,0,0,0-3,.83,3.45,3.45,0,0,0-1.52,2.45h-4.1a6.44,6.44,0,0,1,1.41-3.57,7.71,7.71,0,0,1,3.09-2.28,10.42,10.42,0,0,1,4.11-.8A8.64,8.64,0,0,1,282,37.87a7.54,7.54,0,0,1,2.2,5.74V55.39h-3.55l-.35-3.29a7.23,7.23,0,0,1-2.35,2.67A6.94,6.94,0,0,1,273.85,55.85Zm.81-3.32a4.84,4.84,0,0,0,2.8-.79,5.32,5.32,0,0,0,1.78-2.11,8.24,8.24,0,0,0,.79-2.9h-4.56a5.48,5.48,0,0,0-3.45.85,2.65,2.65,0,0,0-1,2.13,2.45,2.45,0,0,0,1,2.06A4.27,4.27,0,0,0,274.66,52.53Z"/>
   <path class="cls-1" d="M289,55.39V36.23h3.63l.35,2.7a6.76,6.76,0,0,1,2.46-2.32,7.17,7.17,0,0,1,3.53-.85q4.56,0,6.33,3.6a7.53,7.53,0,0,1,2.8-2.63,7.85,7.85,0,0,1,3.81-1,7.42,7.42,0,0,1,5.64,2.17q2,2.16,2,6.45v11H315.5V44.8q0-5.56-4.25-5.56a4.41,4.41,0,0,0-3.53,1.62,7,7,0,0,0-1.37,4.64v9.89h-4.1V44.8q0-5.56-4.28-5.56a4.38,4.38,0,0,0-3.5,1.62,7,7,0,0,0-1.37,4.64v9.89Z"/>
   <path class="cls-1" d="m334.27 55.39v-27h17.19v3.32h-13.09v8.42h11.93v3.25h-11.93v8.72h13.09v3.33z"/>
   <path class="cls-1" d="M357.79,32.6a2.65,2.65,0,0,1-1.91-.72,2.36,2.36,0,0,1-.75-1.79,2.39,2.39,0,0,1,.75-1.8,2.92,2.92,0,0,1,3.82,0,2.4,2.4,0,0,1,.76,1.8,2.36,2.36,0,0,1-.76,1.79A2.65,2.65,0,0,1,357.79,32.6Zm-2.05,22.79V36.23h4.1V55.39Z"/>
   <path class="cls-1" d="M365,55.39V36.23h3.63l.31,3.36a6.59,6.59,0,0,1,2.61-2.8,7.59,7.59,0,0,1,4-1A7.06,7.06,0,0,1,381,37.93q2,2.16,2,6.45v11h-4V44.8q0-5.56-4.56-5.56a4.9,4.9,0,0,0-3.77,1.62,6.63,6.63,0,0,0-1.48,4.64v9.89Z"/>
   <path class="cls-1" d="m396.36 55.85a9 9 0 0 1-8.23-4.91 11.8 11.8 0 0 1 0-10.33 9.06 9.06 0 0 1 3.34-3.55 9.4 9.4 0 0 1 4.93-1.3 8.64 8.64 0 0 1 4 0.89 6.62 6.62 0 0 1 2.68 2.51v-11.58h4.1v27.81h-3.67l-0.43-3a8.94 8.94 0 0 1-2.55 2.4 7.62 7.62 0 0 1-4.17 1.06zm0.73-3.55a5.6 5.6 0 0 0 4.31-1.82 6.61 6.61 0 0 0 1.68-4.67 6.62 6.62 0 0 0-1.68-4.7 6.1 6.1 0 0 0-8.63 0 6.59 6.59 0 0 0-1.7 4.7 7.17 7.17 0 0 0 0.77 3.36 5.72 5.72 0 0 0 2.16 2.29 5.81 5.81 0 0 0 3.09 0.84z"/>
   <path class="cls-1" d="M412.23,55.39V27.58h4.1V39.32A6.8,6.8,0,0,1,419,36.71a7.8,7.8,0,0,1,3.81-1,6.94,6.94,0,0,1,5.4,2.17c1.32,1.44,2,3.59,2,6.45v11h-4.05V44.8q0-5.56-4.44-5.56a5.07,5.07,0,0,0-3.85,1.62,6.5,6.5,0,0,0-1.52,4.64v9.89Z"/>
   <path class="cls-1" d="M443.82,55.85a9.63,9.63,0,0,1-4.92-1.26,9.05,9.05,0,0,1-3.46-3.51,10.54,10.54,0,0,1-1.27-5.27,10.49,10.49,0,0,1,1.29-5.28A9.29,9.29,0,0,1,439,37a10.22,10.22,0,0,1,9.83,0,9.36,9.36,0,0,1,3.47,3.51,10.39,10.39,0,0,1,1.3,5.28,10.35,10.35,0,0,1-1.3,5.27,9.12,9.12,0,0,1-3.49,3.51A9.8,9.8,0,0,1,443.82,55.85Zm0-3.52a5.32,5.32,0,0,0,2.73-.73,5.41,5.41,0,0,0,2-2.18,7.56,7.56,0,0,0,.78-3.61,7.66,7.66,0,0,0-.76-3.61A5.33,5.33,0,0,0,441.14,40a5.4,5.4,0,0,0-2,2.19,7.66,7.66,0,0,0-.77,3.61,7.68,7.68,0,0,0,.77,3.61,5.53,5.53,0,0,0,2,2.18A5.16,5.16,0,0,0,443.82,52.33Z"/>
   <path class="cls-1" d="m462.31 55.39-7.18-19.16h4.29l5.33 15.25 5.33-15.25h4.25l-7.15 19.16z"/>
   <path class="cls-1" d="m485.61 55.85a9.8 9.8 0 0 1-5-1.26 8.83 8.83 0 0 1-3.42-3.49 10.55 10.55 0 0 1-1.19-5.22 11.1 11.1 0 0 1 1.22-5.29 8.81 8.81 0 0 1 3.4-3.55 9.85 9.85 0 0 1 5.08-1.28 9.28 9.28 0 0 1 4.9 1.26 9 9 0 0 1 3.25 3.34 9.32 9.32 0 0 1 1.15 4.64v0.83s0 0.62-0.06 1h-14.94a5.92 5.92 0 0 0 1.8 4.17 5.57 5.57 0 0 0 3.81 1.45 5.06 5.06 0 0 0 2.91-0.79 4.78 4.78 0 0 0 1.76-2.15h4.1a8.67 8.67 0 0 1-3.08 4.49 8.9 8.9 0 0 1-5.69 1.85zm0-16.72a5.77 5.77 0 0 0-3.61 1.21 5.3 5.3 0 0 0-1.95 3.66h10.81a4.88 4.88 0 0 0-1.58-3.55 5.29 5.29 0 0 0-3.67-1.32z"/>
   <path class="cls-1" d="M499.05,55.39V36.23h3.63l.31,3.36a6.59,6.59,0,0,1,2.61-2.8,7.58,7.58,0,0,1,3.95-1A7.08,7.08,0,0,1,515,37.93q2,2.16,2,6.45v11H513V44.8q0-5.56-4.55-5.56a4.9,4.9,0,0,0-3.77,1.62,6.63,6.63,0,0,0-1.49,4.64v9.89Z"/>
   <path class="cls-1" d="M70.25,38.47,118.51,27a28.72,28.72,0,0,0-3.62-13.38A26.52,26.52,0,0,0,105,3.6a29.28,29.28,0,0,0-28.13,0,26.82,26.82,0,0,0-10,10,28.92,28.92,0,0,0-3.71,14.78,30.76,30.76,0,0,0,2,11.34ZM81.42,16.19a13,13,0,0,1,18.91,0,12,12,0,0,1,1.84,2.43L77.61,25.15A14.86,14.86,0,0,1,81.42,16.19Z"/>
   <path class="cls-1" d="M100.33,40.5a12.88,12.88,0,0,1-9.48,4.09,12.69,12.69,0,0,1-9.43-4.09,11.14,11.14,0,0,1-1.61-2.1L66.05,41.69c.24.48.49,1,.76,1.43a26.41,26.41,0,0,0,9.92,10,29.45,29.45,0,0,0,28.18,0,26.35,26.35,0,0,0,10-10,27.24,27.24,0,0,0,3-8.1H103.48A13.08,13.08,0,0,1,100.33,40.5Z"/>
   <polygon class="cls-1" points="152.84 18.75 152.84 5.14 136.19 9.57 135.13 1.31 122.7 1.31 122.7 25.95"/>
   <polygon class="cls-1" points="122.7 28.16 122.7 55.39 136.65 55.39 136.65 24.83"/>
   <path class="cls-1" d="m178.94 12.51h0.18l22.08-5.31a26.08 26.08 0 0 0-4.88-3.6 29.28 29.28 0 0 0-28.13 0 26.82 26.82 0 0 0-10 10 27.2 27.2 0 0 0-2 4.38z"/>
   <path class="cls-1" d="M203,9l-16.25,3.89a13.75,13.75,0,0,1,5,3.31q4,4.1,4,12.16t-4,12.15a12.88,12.88,0,0,1-9.48,4.09,12.69,12.69,0,0,1-9.43-4.09q-4-4.08-4-12.15t4-12.14l-17.29,4.13a32.57,32.57,0,0,0-1,8,29.15,29.15,0,0,0,3.65,14.77,26.41,26.41,0,0,0,9.92,10,29.45,29.45,0,0,0,28.18,0,26.35,26.35,0,0,0,10-10,29.25,29.25,0,0,0,3.65-14.77,29.29,29.29,0,0,0-3.65-14.78A28.32,28.32,0,0,0,203,9Z"/>
   <path class="cls-2" d="M59.2,41.11,59,40.77,39.66,1.31H7.8V12.1H21.25L0,55.39H15.61l2-4.36Zm-26.1-23L41,34.89,23,39.68Z"/>
   <polygon class="cls-2" points="61.79 46.39 46.38 46.39 50.6 55.39 66.21 55.39"/>
  </g>
 </g>
</svg>

<?xml version="1.0" encoding="UTF-8"?><svg class="logo" viewBox="0 0 517.01 56.69"><defs><style>.cls-1{fill:#fff;}.cls-2{fill:#ff6464;}</style></defs><g id="Layer_2" data-name="Layer 2"><g id="Layer_4" data-name="Layer 4"><path class="cls-1" d="M233.14,55.39V31.67h-8V28.35h20v3.32h-7.95V55.39Z"></path><path class="cls-1" d="M254.23,55.85a9.86,9.86,0,0,1-5-1.26,8.87,8.87,0,0,1-3.41-3.49,10.55,10.55,0,0,1-1.24-5.22,11.1,11.1,0,0,1,1.22-5.29,8.81,8.81,0,0,1,3.4-3.55,9.84,9.84,0,0,1,5.07-1.28A9.32,9.32,0,0,1,259.17,37a8.87,8.87,0,0,1,3.24,3.34,9.22,9.22,0,0,1,1.16,4.6c0,.25,0,.53,0,.83s0,.62-.05,1H248.59A5.92,5.92,0,0,0,250.42,51a5.57,5.57,0,0,0,3.81,1.45,5.08,5.08,0,0,0,2.91-.79,4.78,4.78,0,0,0,1.76-2.15H263A8.59,8.59,0,0,1,259.92,54,8.9,8.9,0,0,1,254.23,55.85Zm0-16.72a5.77,5.77,0,0,0-3.63,1.21A5.35,5.35,0,0,0,248.66,44h10.82a4.92,4.92,0,0,0-1.58-3.55A5.29,5.29,0,0,0,254.23,39.13Z"></path><path class="cls-1" d="M273.85,55.85a8.75,8.75,0,0,1-4-.81,5.51,5.51,0,0,1-2.36-2.15,5.63,5.63,0,0,1-.77-2.91,5.2,5.2,0,0,1,2.16-4.4A10.08,10.08,0,0,1,275.05,44h5v-.34a4.3,4.3,0,0,0-1.22-3.36,4.44,4.44,0,0,0-3.14-1.12,5.19,5.19,0,0,0-3,.83,3.45,3.45,0,0,0-1.52,2.45h-4.1a6.44,6.44,0,0,1,1.41-3.57,7.71,7.71,0,0,1,3.09-2.28,10.42,10.42,0,0,1,4.11-.8A8.64,8.64,0,0,1,282,37.87a7.54,7.54,0,0,1,2.2,5.74V55.39h-3.55l-.35-3.29a7.23,7.23,0,0,1-2.35,2.67A6.94,6.94,0,0,1,273.85,55.85Zm.81-3.32a4.84,4.84,0,0,0,2.8-.79,5.32,5.32,0,0,0,1.78-2.11,8.24,8.24,0,0,0,.79-2.9h-4.56a5.48,5.48,0,0,0-3.45.85,2.65,2.65,0,0,0-1,2.13,2.45,2.45,0,0,0,1,2.06A4.27,4.27,0,0,0,274.66,52.53Z"></path><path class="cls-1" d="M289,55.39V36.23h3.63l.35,2.7a6.76,6.76,0,0,1,2.46-2.32,7.17,7.17,0,0,1,3.53-.85q4.56,0,6.33,3.6a7.53,7.53,0,0,1,2.8-2.63,7.85,7.85,0,0,1,3.81-1,7.42,7.42,0,0,1,5.64,2.17q2,2.16,2,6.45v11H315.5V44.8q0-5.56-4.25-5.56a4.41,4.41,0,0,0-3.53,1.62,7,7,0,0,0-1.37,4.64v9.89h-4.1V44.8q0-5.56-4.28-5.56a4.38,4.38,0,0,0-3.5,1.62,7,7,0,0,0-1.37,4.64v9.89Z"></path><path class="cls-1" d="M334.27,55.39v-27h17.19v3.32H338.37v8.42H350.3v3.25H338.37v8.72h13.09v3.33Z"></path><path class="cls-1" d="M357.79,32.6a2.65,2.65,0,0,1-1.91-.72,2.36,2.36,0,0,1-.75-1.79,2.39,2.39,0,0,1,.75-1.8,2.92,2.92,0,0,1,3.82,0,2.4,2.4,0,0,1,.76,1.8,2.36,2.36,0,0,1-.76,1.79A2.65,2.65,0,0,1,357.79,32.6Zm-2.05,22.79V36.23h4.1V55.39Z"></path><path class="cls-1" d="M365,55.39V36.23h3.63l.31,3.36a6.59,6.59,0,0,1,2.61-2.8,7.59,7.59,0,0,1,4-1A7.06,7.06,0,0,1,381,37.93q2,2.16,2,6.45v11h-4V44.8q0-5.56-4.56-5.56a4.9,4.9,0,0,0-3.77,1.62,6.63,6.63,0,0,0-1.48,4.64v9.89Z"></path><path class="cls-1" d="M396.36,55.85a9,9,0,0,1-8.23-4.91,11.8,11.8,0,0,1,0-10.33,9.06,9.06,0,0,1,3.34-3.55,9.4,9.4,0,0,1,4.93-1.3,8.64,8.64,0,0,1,4,.89,6.62,6.62,0,0,1,2.68,2.51V27.58h4.1V55.39h-3.67l-.43-3a8.94,8.94,0,0,1-2.55,2.4A7.62,7.62,0,0,1,396.36,55.85Zm.73-3.55a5.6,5.6,0,0,0,4.31-1.82,6.61,6.61,0,0,0,1.68-4.67,6.62,6.62,0,0,0-1.68-4.7,6.1,6.1,0,0,0-8.63,0,6.59,6.59,0,0,0-1.7,4.7,7.17,7.17,0,0,0,.77,3.36A5.72,5.72,0,0,0,394,51.46,5.81,5.81,0,0,0,397.09,52.3Z"></path><path class="cls-1" d="M412.23,55.39V27.58h4.1V39.32A6.8,6.8,0,0,1,419,36.71a7.8,7.8,0,0,1,3.81-1,6.94,6.94,0,0,1,5.4,2.17c1.32,1.44,2,3.59,2,6.45v11h-4.05V44.8q0-5.56-4.44-5.56a5.07,5.07,0,0,0-3.85,1.62,6.5,6.5,0,0,0-1.52,4.64v9.89Z"></path><path class="cls-1" d="M443.82,55.85a9.63,9.63,0,0,1-4.92-1.26,9.05,9.05,0,0,1-3.46-3.51,10.54,10.54,0,0,1-1.27-5.27,10.49,10.49,0,0,1,1.29-5.28A9.29,9.29,0,0,1,439,37a10.22,10.22,0,0,1,9.83,0,9.36,9.36,0,0,1,3.47,3.51,10.39,10.39,0,0,1,1.3,5.28,10.35,10.35,0,0,1-1.3,5.27,9.12,9.12,0,0,1-3.49,3.51A9.8,9.8,0,0,1,443.82,55.85Zm0-3.52a5.32,5.32,0,0,0,2.73-.73,5.41,5.41,0,0,0,2-2.18,7.56,7.56,0,0,0,.78-3.61,7.66,7.66,0,0,0-.76-3.61A5.33,5.33,0,0,0,441.14,40a5.4,5.4,0,0,0-2,2.19,7.66,7.66,0,0,0-.77,3.61,7.68,7.68,0,0,0,.77,3.61,5.53,5.53,0,0,0,2,2.18A5.16,5.16,0,0,0,443.82,52.33Z"></path><path class="cls-1" d="M462.31,55.39l-7.18-19.16h4.29l5.33,15.25,5.33-15.25h4.25l-7.15,19.16Z"></path><path class="cls-1" d="M485.61,55.85a9.8,9.8,0,0,1-5-1.26,8.83,8.83,0,0,1-3.42-3.49A10.55,10.55,0,0,1,476,45.88a11.1,11.1,0,0,1,1.22-5.29,8.81,8.81,0,0,1,3.4-3.55,9.85,9.85,0,0,1,5.08-1.28,9.28,9.28,0,0,1,4.9,1.26,9,9,0,0,1,3.25,3.34A9.32,9.32,0,0,1,495,45c0,.25,0,.53,0,.83s0,.62-.06,1H480A5.92,5.92,0,0,0,481.8,51a5.57,5.57,0,0,0,3.81,1.45,5.06,5.06,0,0,0,2.91-.79,4.78,4.78,0,0,0,1.76-2.15h4.1A8.67,8.67,0,0,1,491.3,54,8.9,8.9,0,0,1,485.61,55.85Zm0-16.72A5.77,5.77,0,0,0,482,40.34,5.3,5.3,0,0,0,480.05,44h10.81a4.88,4.88,0,0,0-1.58-3.55A5.29,5.29,0,0,0,485.61,39.13Z"></path><path class="cls-1" d="M499.05,55.39V36.23h3.63l.31,3.36a6.59,6.59,0,0,1,2.61-2.8,7.58,7.58,0,0,1,3.95-1A7.08,7.08,0,0,1,515,37.93q2,2.16,2,6.45v11H513V44.8q0-5.56-4.55-5.56a4.9,4.9,0,0,0-3.77,1.62,6.63,6.63,0,0,0-1.49,4.64v9.89Z"></path><path class="cls-1" d="M70.25,38.47,118.51,27a28.72,28.72,0,0,0-3.62-13.38A26.52,26.52,0,0,0,105,3.6a29.28,29.28,0,0,0-28.13,0,26.82,26.82,0,0,0-10,10,28.92,28.92,0,0,0-3.71,14.78,30.76,30.76,0,0,0,2,11.34ZM81.42,16.19a13,13,0,0,1,18.91,0,12,12,0,0,1,1.84,2.43L77.61,25.15A14.86,14.86,0,0,1,81.42,16.19Z"></path><path class="cls-1" d="M100.33,40.5a12.88,12.88,0,0,1-9.48,4.09,12.69,12.69,0,0,1-9.43-4.09,11.14,11.14,0,0,1-1.61-2.1L66.05,41.69c.24.48.49,1,.76,1.43a26.41,26.41,0,0,0,9.92,10,29.45,29.45,0,0,0,28.18,0,26.35,26.35,0,0,0,10-10,27.24,27.24,0,0,0,3-8.1H103.48A13.08,13.08,0,0,1,100.33,40.5Z"></path><polygon class="cls-1" points="152.84 18.75 152.84 5.14 136.19 9.57 135.13 1.31 122.7 1.31 122.7 25.95 152.84 18.75"></polygon><polygon class="cls-1" points="122.7 28.16 122.7 55.39 136.65 55.39 136.65 24.83 122.7 28.16"></polygon><path class="cls-1" d="M178.94,12.51l.18,0L201.2,7.2a26.08,26.08,0,0,0-4.88-3.6,29.28,29.28,0,0,0-28.13,0,26.82,26.82,0,0,0-10,10,27.2,27.2,0,0,0-2,4.38Z"></path><path class="cls-1" d="M203,9l-16.25,3.89a13.75,13.75,0,0,1,5,3.31q4,4.1,4,12.16t-4,12.15a12.88,12.88,0,0,1-9.48,4.09,12.69,12.69,0,0,1-9.43-4.09q-4-4.08-4-12.15t4-12.14l-17.29,4.13a32.57,32.57,0,0,0-1,8,29.15,29.15,0,0,0,3.65,14.77,26.41,26.41,0,0,0,9.92,10,29.45,29.45,0,0,0,28.18,0,26.35,26.35,0,0,0,10-10,29.25,29.25,0,0,0,3.65-14.77,29.29,29.29,0,0,0-3.65-14.78A28.32,28.32,0,0,0,203,9Z"></path><path class="cls-2" d="M59.2,41.11,59,40.77,39.66,1.31H7.8V12.1H21.25L0,55.39H15.61l2-4.36Zm-26.1-23L41,34.89,23,39.68Z"></path><polygon class="cls-2" points="61.79 46.39 46.38 46.39 50.6 55.39 66.21 55.39 61.79 46.39"></polygon></g></g></svg>
